packages/icons/src/environment-group.svg

<svg fill="none" viewBox="0 0 32 32" xmlns="http://www.w3.org/2000/svg"><circle cx="16" cy="16" fill="#00ade4" r="16"/><g stroke="#fff"><path d="m18.1594 11.8701-1.6517 2.8608c-.0893.1547-.2544.25-.433.25h-3.3033c-.1787 0-.3437-.0953-.433-.25l-1.6517-2.8608c-.0893-.1547-.0893-.3453 0-.5l1.6517-2.86073c.0893-.1547.2543-.25.433-.25h3.3033c.1786 0 .3437.0953.433.25l1.6517 2.86073c.0893.1547.0893.3453 0 .5z" fill="#00ade4" stroke-linejoin="round"/><path d="m16.7623 5.01144-5.9171-.00002c-.3564-.00001-.6858.18961-.86475.49773l-2.61861 4.50825c-.16497.284-.17995.631-.04006.9282l1.89266 4.0208c.13862.2945.12525.638-.03583.9208l-1.793 3.1481c-.17756.3117-.17451.6947.00799 1.0036l2.58567 4.3762c.17993.3045.50733.4913.86093.4913h5.9475c.3599 0 .6919-.1933.8696-.5062l1.6835-2.9647c.1777-.3129.5098-.5062.8696-.5062h3.3595c.3452 0 .666-.1781.8486-.471l2.8165-4.5189c.1934-.3103.2021-.7014.0226-1.0199l-2.8458-5.04989c-.1772-.3145-.5102-.50906-.8712-.50906h-3.3048c-.3733 0-.7155-.20788-.8875-.53915l-1.6985-3.27081c-.172-.33126-.5142-.53914-.8875-.53915z"/><path d="m18.1594 18.5271-1.6517 2.8608c-.0893.1547-.2544.25-.433.25h-3.3033c-.1787 0-.3437-.0953-.433-.25l-1.6517-2.8608c-.0893-.1547-.0893-.3453 0-.5l1.6517-2.8607c.0893-.1547.2543-.25.433-.25h3.3033c.1786 0 .3437.0953.433.25l1.6517 2.8607c.0893.1547.0893.3453 0 .5z" fill="#00ade4" stroke-linejoin="round"/><path d="m23.7947 15.4365-1.6517 2.8608c-.0893.1547-.2544.25-.433.25h-3.3033c-.1787 0-.3437-.0953-.433-.25l-1.6517-2.8608c-.0893-.1547-.0893-.3453 0-.5l1.6517-2.8607c.0893-.1547.2543-.25.433-.25h3.3033c.1786 0 .3437.0953.433.25l1.6517 2.8607c.0893.1547.0893.3453 0 .5z" fill="#00ade4" stroke-linejoin="round"/></g></svg>

<svg viewBox="0 0 32 32" fill="none" xmlns="http://www.w3.org/2000/svg">
<circle cx="16" cy="16" r="16" fill="#00ADE4"/>
<path d="M18.1594 11.8701L16.5077 14.7309C16.4184 14.8856 16.2533 14.9809 16.0747 14.9809L12.7714 14.9809C12.5927 14.9809 12.4277 14.8856 12.3384 14.7309L10.6867 11.8701C10.5974 11.7154 10.5974 11.5248 10.6867 11.3701L12.3384 8.50937C12.4277 8.35467 12.5927 8.25937 12.7714 8.25937L16.0747 8.25937C16.2533 8.25937 16.4184 8.35467 16.5077 8.50937L18.1594 11.3701C18.2487 11.5248 18.2487 11.7154 18.1594 11.8701Z" fill="#00ADE4" stroke="white" stroke-linejoin="round"/>
<path d="M16.7623 5.01144L10.8452 5.01142C10.4888 5.01141 10.1594 5.20103 9.98045 5.50915L7.36184 10.0174C7.19687 10.3014 7.18189 10.6484 7.32178 10.9456L9.21444 14.9664C9.35306 15.2609 9.33969 15.6044 9.17861 15.8872L7.38561 19.0353C7.20805 19.347 7.2111 19.73 7.3936 20.0389L9.97927 24.4151C10.1592 24.7196 10.4866 24.9064 10.8402 24.9064L16.7877 24.9064C17.1476 24.9064 17.4796 24.7131 17.6573 24.4002L19.3408 21.4355C19.5185 21.1226 19.8506 20.9293 20.2104 20.9293L23.5699 20.9293C23.9151 20.9293 24.2359 20.7512 24.4185 20.4583L27.235 15.9394C27.4284 15.6291 27.4371 15.238 27.2576 14.9195L24.4118 9.86961C24.2346 9.55511 23.9016 9.36055 23.5406 9.36055L20.2358 9.36055C19.8625 9.36055 19.5203 9.15267 19.3483 8.8214L17.6498 5.55059C17.4778 5.21933 17.1356 5.01145 16.7623 5.01144Z" stroke="white"/>
<path d="M18.1594 18.5271L16.5077 21.3879C16.4184 21.5426 16.2533 21.6379 16.0747 21.6379L12.7714 21.6379C12.5927 21.6379 12.4277 21.5426 12.3384 21.3879L10.6867 18.5271C10.5974 18.3724 10.5974 18.1818 10.6867 18.0271L12.3384 15.1664C12.4277 15.0117 12.5927 14.9164 12.7714 14.9164L16.0747 14.9164C16.2533 14.9164 16.4184 15.0117 16.5077 15.1664L18.1594 18.0271C18.2487 18.1818 18.2487 18.3724 18.1594 18.5271Z" fill="#00ADE4" stroke="white" stroke-linejoin="round"/>
<path d="M23.7947 15.4365L22.143 18.2973C22.0537 18.452 21.8886 18.5473 21.71 18.5473L18.4067 18.5473C18.228 18.5473 18.063 18.452 17.9737 18.2973L16.322 15.4365C16.2327 15.2818 16.2327 15.0912 16.322 14.9365L17.9737 12.0758C18.063 11.9211 18.228 11.8258 18.4067 11.8258L21.71 11.8258C21.8886 11.8258 22.0537 11.9211 22.143 12.0758L23.7947 14.9365C23.884 15.0912 23.884 15.2818 23.7947 15.4365Z" fill="#00ADE4" stroke="white" stroke-linejoin="round"/>
</svg>
